!!! OTL: Literature40
!!! Chapter: 5
!!! Section: I
!!! Page: 353
!!! Mode: 
!!! Encoder: DJB
**kern
*staff1
*I"Piano
=1-
*clefG2
*k[b-e-]
*g:
*M3/4
4r
4r
8r
8d/
=2
8b-\L
8cc\J
4.dd\
8dd\
=3
8cc\L
8b-\J
4.cc\
8a/
=4
8b-\L
8cc\J
4.dd\
8b-\
=5
8cc\
4.dd\
8r
8d/
=6
8b-\L
8cc\J
4.dd\
8dd\
=7
8cc\L
8a\J
4.cc\
8dd\
=8
8b-/L
8a/J
4.b-\
8a/
=9
!!linebreak:original
8g/
4.b-\
8r
8b-\
=10
*M2/4
8g/L
8g/J
8d/L
8d/J
=11
8.b-/L
16a/Jk
8g/L
8b-/J
=12
8a/L
8g/J
16f/LL
16g/J
8a/J
=13
4.g/
8dd\
=14
8g/L
8g/J
8d/L
8d/J
=15
8.b-/L
16a/Jk
8g/L
8b-/J
=16
8a/L
8g/J
16f/LL
16g/J
8a/J
=17
4.g/
8r
==
*-
